X:46
T: Lanqiao danshui
N: C0061
O: China, Ningxia, Longde
S: I, 206]
N: neues Volkslied
R: Xiaodiao. "Lanqiao hui" de gushi]
M: 2/4
L: 1/16
K: A
E2E2E4 | B2B4e2 | B2A2B4 | BcBAF4
B3AB2c2 | ABAFE2E2 | D3EABAF | E8
B3AB2c2 | ABAFE2E2 | D3EABAF | E8

